X: 40617
T: Tongue Twister, The
R: jig
M: 6/8
K: Dmixolydian
|:A2d BAG|A2B cBA|B2G2AB|
cBG GAB|A2F EFG|1 B2A F2G:|2 B2A F2A||
|:d2f edc|d2e fed|^c2A2AB|
cBG GAB|A2F EFG|1 B2A F2A:|2 B2A F2D||- D2||

